X:87
T:William Litten Country Dance. LIT.087
M:2/2
Q:1/4=140
L:1/8
B:Wm. Litten MS, 1802
Z:Village Music Project 2017 Anne Wride
K:Gm
c | B/c/d Gd BG dB | A/B/c Fc AF cA | B/c/d Gd BG dB | ^F/G/A DF G2G !fine!:|
|: A | B3g B/B/B fd | cd cB AB cA | G g2 a b/a/g a/g/f | g/a/b af g2 ga |
g/a/b fd Bd gd | cd cB AB cA | Bd g^f gB ce | dB cA G2 G !D.C.!:|

